; generated by PrusaSlicer 2.5.0+MacOS-arm64 on 2022-12-13 at 09:37:13 UTC


;
;
; 

; external perimeters extrusion width = 0.60mm
; perimeters extrusion width = 0.50mm
; infill extrusion width = 0.50mm
; solid infill extrusion width = 0.50mm
; top infill extrusion width = 0.45mm
; first layer extrusion width = 0.42mm

M73 P0 R179
M73 Q0 S180
M201 X1000 Y1000 Z200 E5000 ; sets maximum accelerations, mm/sec^2
M203 X200 Y200 Z12 E120 ; sets maximum feedrates, mm / sec
M204 P1250 R1250 T1250 ; sets acceleration (P, T) and retract acceleration (R), mm/sec^2
M205 X8.00 Y8.00 Z0.40 E4.50 ; sets the jerk limits, mm/sec
M205 S0 T0 ; sets the minimum extruding and travel feed rate, mm/sec
M107
;TYPE:Custom
M862.3 P "MK3S" ; printer model check
M862.1 P0.4 ; nozzle diameter check
M115 U3.11.0 ; tell printer latest fw version
G90 ; use absolute coordinates
M83 ; extruder relative mode
M104 S215 ; set extruder temp
M140 S60 ; set bed temp
M190 S60 ; wait for bed temp
M109 S215 ; wait for extruder temp
G28 W ; home all without mesh bed level
G80 ; mesh bed leveling

G1 Z0.2 F720
G1 Y-3 F1000 ; go outside print area
G92 E0
G1 X60 E9 F1000 ; intro line
G1 X100 E12.5 F1000 ; intro line

G92 E0
M221 S95

; Don't change E values below. Excessive value can damage the printer.

M907 E538 ; set extruder motor current
G21 ; set units to millimeters
G90 ; use absolute coordinates
M83 ; use relative distances for extrusion
M900 K0.05 ; Filament gcode LA 1.5
M900 K30 ; Filament gcode LA 1.0
M107
;LAYER_CHANGE
;Z:0.2
;HEIGHT:0.2
;BEFORE_LAYER_CHANGE
G92 E0.0
;0.2


G1 E-.8 F2100
M73 Q0 S179
G1 Z.4 F720
;AFTER_LAYER_CHANGE
;0.2
G1 X33.927 Y18.477 F10800
G1 Z.2 F720
G1 E.8 F2100
M204 S800
;TYPE:Skirt/Brim
;WIDTH:0.42
G1 F1200
G1 X34.14 Y18.087 E.01391
G1 X35.291 Y16.683 E.05694
G1 X36.976 Y15.266 E.06901
G1 X38.57 Y14.319 E.05814
G1 X40.038 Y13.677 E.05025
G1 X42.18 Y13.041 E.07006
G1 X44.123 Y12.723 E.06172
G1 X45.972 Y12.623 E.05809
G1 X204.161 Y12.627 E4.95989
G1 X205.877 Y12.723 E.05391
G1 X207.82 Y13.041 E.06172
G1 X209.683 Y13.575 E.06078
G1 X211.715 Y14.468 E.06958
G1 X213.311 Y15.472 E.05913
G1 X214.429 Y16.407 E.04571
G1 X215.608 Y17.732 E.05559
G1 X216.519 Y19.223 E.0548
G1 X217.118 Y20.854 E.05448
G1 X217.363 Y22.577 E.05457
G1 X217.377 Y187.162 E5.16046
G1 X217.228 Y188.649 E.04684
G1 X216.716 Y190.342 E.05545
G1 X215.86 Y191.913 E.05611
G1 X214.709 Y193.317 E.05694
G1 X213.024 Y194.734 E.06901
G1 X211.43 Y195.681 E.05814
G1 X209.962 Y196.323 E.05025
G1 X207.82 Y196.959 E.07006
G1 X205.877 Y197.277 E.06172
G1 X204.027 Y197.377 E.05809
G1 X45.972 Y197.377 E4.9557
G1 X43.854 Y197.246 E.06654
G1 X42.18 Y196.959 E.05326
G1 X40.317 Y196.425 E.06078
G1 X38.285 Y195.532 E.06958
G1 X36.976 Y194.734 E.04809
G1 X35.571 Y193.593 E.05676
G1 X34.392 Y192.268 E.05559
G1 X33.481 Y190.777 E.0548
G1 X32.882 Y189.146 E.05447
G1 X32.623 Y187.162 E.06272
G1 X32.623 Y22.837 E5.15229
G1 X32.772 Y21.351 E.04684
M73 P0 R178
G1 X33.284 Y19.658 E.05545
G1 X33.899 Y18.529 E.04031
M204 S1000
; printing object mockup_V2.stl id:0 copy 0
;WIPE_START
G1 F8640
G1 X34.14 Y18.087 E-.11629
G1 X35.291 Y16.683 E-.41932
G1 X36.035 Y16.057 E-.22439
;WIPE_END
G1 E-.04 F2100
G1 Z.6 F720
G1 X35.908 Y188.218 F10800
G1 Z.2 F720
G1 E.8 F2100
M204 S800
;TYPE:Perimeter
;WIDTH:0.419999
G1 F1200
G1 X35.787 Y187.119 E.03466
G1 X35.787 Y22.881 E5.14958
G1 X35.908 Y21.782 E.03466
G1 X36.258 Y20.742 E.03441
G1 X36.84 Y19.737 E.03642
G1 X37.65 Y18.793 E.039
G1 X38.674 Y17.937 E.04183
G1 X39.887 Y17.196 E.04458
G1 X41.262 Y16.595 E.04703
G1 X42.761 Y16.152 E.04901
G1 X44.345 Y15.88 E.0504
G1 X45.995 Y15.787 E.05181
G1 X204.086 Y15.792 E4.95682
G1 X205.655 Y15.88 E.04929
G1 X207.239 Y16.152 E.0504
G1 X208.738 Y16.595 E.04901
G1 X210.113 Y17.196 E.04703
G1 X211.326 Y17.937 E.04458
G1 X212.349 Y18.793 E.04183
G1 X213.16 Y19.737 E.03901
G1 X213.742 Y20.742 E.03642
G1 X214.092 Y21.782 E.03441
G1 X214.213 Y22.881 E.03466
G1 X214.213 Y187.119 E5.14958
G1 X214.092 Y188.218 E.03466
M73 Q0 S178
G1 X213.742 Y189.258 E.03441
G1 X213.16 Y190.263 E.03642
G1 X212.349 Y191.207 E.03901
G1 X211.326 Y192.063 E.04182
G1 X210.113 Y192.803 E.04458
G1 X208.738 Y193.405 E.04703
G1 X207.239 Y193.848 E.04901
G1 X205.655 Y194.12 E.0504
G1 X204.005 Y194.213 E.05181
G1 X45.995 Y194.213 E4.95431
G1 X44.345 Y194.12 E.05181
G1 X42.761 Y193.848 E.0504
G1 X41.262 Y193.405 E.04901
G1 X39.887 Y192.803 E.04703
G1 X38.674 Y192.063 E.04458
G1 X37.65 Y191.207 E.04182
G1 X36.84 Y190.263 E.039
G1 X36.258 Y189.258 E.03642
G1 X35.927 Y188.275 E.03253
M204 S1000
G1 X35.538 Y188.3 F10800
M204 S800
;TYPE:External perimeter
G1 F1200
G1 X35.41 Y187.14 E.03658
G1 X35.41 Y22.86 E5.15087
G1 X35.538 Y21.7 E.03658
G1 X35.912 Y20.585 E.03687
G1 X36.532 Y19.518 E.0387
G1 X37.385 Y18.523 E.04107
G1 X38.453 Y17.63 E.04369
G1 X39.713 Y16.861 E.04626
G1 X41.132 Y16.24 E.04857
G1 X42.675 Y15.784 E.05045
G1 X44.302 Y15.505 E.05177
G1 X45.984 Y15.41 E.05281
G1 X204.096 Y15.415 E4.95749
G1 X205.698 Y15.505 E.05029
G1 X207.325 Y15.784 E.05177
G1 X208.868 Y16.24 E.05045
G1 X210.287 Y16.861 E.04857
G1 X211.547 Y17.63 E.04626
G1 X212.615 Y18.523 E.04369
G1 X213.468 Y19.518 E.04107
G1 X214.088 Y20.585 E.0387
G1 X214.462 Y21.7 E.03687
G1 X214.59 Y22.86 E.03658
G1 X214.59 Y187.14 E5.15087
G1 X214.462 Y188.3 E.03658
M73 P0 R177
G1 X214.088 Y189.415 E.03687
G1 X213.468 Y190.482 E.0387
G1 X212.615 Y191.477 E.04107
G1 X211.547 Y192.37 E.04368
G1 X210.287 Y193.139 E.04626
G1 X208.868 Y193.76 E.04857
G1 X207.325 Y194.216 E.05045
G1 X205.698 Y194.495 E.05177
G1 X204.016 Y194.59 E.05281
G1 X45.984 Y194.59 E4.95497
G1 X44.302 Y194.495 E.05281
M73 P1 R177
M73 Q1 S178
G1 X42.675 Y194.216 E.05177
G1 X41.132 Y193.76 E.05045
G1 X39.713 Y193.139 E.04857
G1 X38.453 Y192.37 E.04626
G1 X37.385 Y191.477 E.04368
G1 X36.532 Y190.482 E.04107
G1 X35.912 Y189.415 E.0387
G1 X35.557 Y188.357 E.03499
M204 S1000
G1 X35.833 Y188.03 F10800
;WIPE_START
G1 F8640
G1 X35.41 Y187.14 E-.28297
G1 X35.41 Y185.074 E-.47703
;WIPE_END
G1 E-.04 F2100
G1 Z.6 F720
G1 X94.437 Y147.867 F10800
G1 Z.2 F720
G1 E.8 F2100
M204 S800
;TYPE:Perimeter
G1 F1200
G1 X94.306 Y147.009 E.02723
G1 X94.306 Y62.878 E2.63785
G1 X94.41 Y62.084 E.02513
G1 X94.747 Y61.241 E.02846
G1 X95.291 Y60.486 E.02917
G1 X96.006 Y59.847 E.03009
G1 X96.857 Y59.336 E.03111
G1 X97.891 Y58.94 E.03472
G1 X98.829 Y58.737 E.03009
G1 X100.242 Y58.657 E.04435
G1 X101.276 Y58.726 E.03251
G1 X102.294 Y58.94 E.03262
G1 X103.244 Y59.296 E.0318
G1 X104.094 Y59.785 E.03075
G1 X104.813 Y60.398 E.02964
G1 X105.371 Y61.123 E.02868
G1 X105.736 Y61.94 E.02804
G1 X105.88 Y62.878 E.02977
G1 X105.88 Y147.009 E2.63785
G1 X105.776 Y147.803 E.02513
M73 Q1 S177
G1 X105.439 Y148.646 E.02845
G1 X104.895 Y149.401 E.02917
G1 X104.179 Y150.04 E.03009
G1 X103.328 Y150.55 E.0311
G1 X102.376 Y150.922 E.03205
G1 X101.266 Y151.162 E.03563
G1 X99.944 Y151.23 E.04149
G1 X98.909 Y151.161 E.03251
G1 X97.891 Y150.946 E.03262
G1 X96.857 Y150.55 E.03472
G1 X96.092 Y150.101 E.02782
G1 X95.372 Y149.488 E.02964
G1 X94.814 Y148.764 E.02867
G1 X94.446 Y147.926 E.02868
M204 S1000
G1 X94.803 Y147.813 F10800
M204 S800
;TYPE:External perimeter
G1 F1200
G1 X94.683 Y147.009 E.0255
G1 X94.683 Y62.878 E2.63785
G1 X94.784 Y62.135 E.02351
G1 X95.094 Y61.388 E.02536
G1 X95.593 Y60.712 E.02635
G1 X96.254 Y60.131 E.0276
G1 X97.048 Y59.662 E.02892
G1 X97.971 Y59.309 E.03099
G1 X98.94 Y59.101 E.03105
G1 X100.261 Y59.034 E.04149
G1 X101.25 Y59.102 E.03108
G1 X102.214 Y59.309 E.03094
G1 X103.11 Y59.648 E.03002
G1 X103.903 Y60.111 E.0288
G1 X104.566 Y60.683 E.02745
G1 X105.07 Y61.349 E.02618
G1 X105.389 Y62.087 E.02522
G1 X105.503 Y62.878 E.02506
G1 X105.503 Y147.009 E2.63785
G1 X105.402 Y147.752 E.02351
G1 X105.092 Y148.499 E.02536
G1 X104.593 Y149.175 E.02635
G1 X103.932 Y149.756 E.0276
G1 X103.138 Y150.225 E.02892
G1 X102.242 Y150.57 E.0301
G1 X101.246 Y150.785 E.03194
G1 X99.925 Y150.853 E.04149
G1 X98.936 Y150.785 E.03108
G1 X97.971 Y150.578 E.03094
G1 X97.048 Y150.225 E.03099
G1 X96.282 Y149.776 E.02782
G1 X95.62 Y149.204 E.02745
G1 X95.116 Y148.538 E.02618
G1 X94.826 Y147.868 E.02288
M204 S1000
G1 X94.415 Y147.715 F10800
;WIPE_START
G1 F8640
G1 X94.683 Y147.009 E-.20119
G1 X94.683 Y144.588 E-.55881
;WIPE_END
G1 E-.04 F2100
G1 Z.6 F720
G1 X120.749 Y48.02 F10800
G1 Z.2 F720
G1 E.8 F2100
M204 S800
;TYPE:Perimeter
G1 F1200
G1 X120.88 Y48.878 E.02723
G1 X120.88 Y161.009 E3.51576
G1 X120.776 Y161.803 E.02513
G1 X120.439 Y162.646 E.02845
G1 X119.895 Y163.4 E.02917
G1 X119.179 Y164.04 E.03009
G1 X118.328 Y164.55 E.0311
G1 X117.376 Y164.922 E.03205
G1 X116.266 Y165.162 E.03563
G1 X114.944 Y165.23 E.04149
G1 X113.909 Y165.161 E.03251
G1 X112.891 Y164.946 E.03262
G1 X111.942 Y164.591 E.0318
G1 X111.092 Y164.101 E.03075
G1 X110.372 Y163.488 E.02964
G1 X109.814 Y162.764 E.02867
G1 X109.589 Y162.275 E.01689
G1 X109.41 Y161.803 E.01581
G1 X109.311 Y161.086 E.0227
G1 X109.306 Y48.878 E3.51819
G1 X109.41 Y48.084 E.02513
G1 X109.589 Y47.612 E.0158
G1 X109.801 Y47.142 E.01619
G1 X110.291 Y46.486 E.02565
G1 X111.006 Y45.847 E.03009
G1 X111.857 Y45.336 E.03111
G1 X112.809 Y44.965 E.03205
G1 X113.92 Y44.725 E.03563
G1 X115.242 Y44.657 E.04149
G1 X116.276 Y44.726 E.03251
G1 X117.294 Y44.94 E.03262
G1 X118.244 Y45.296 E.0318
G1 X119.094 Y45.785 E.03075
G1 X119.813 Y46.398 E.02964
G1 X120.371 Y47.123 E.02868
G1 X120.739 Y47.96 E.02868
M204 S1000
G1 X120.383 Y48.074 F10800
M204 S800
;TYPE:External perimeter
G1 F1200
G1 X120.503 Y48.878 E.0255
G1 X120.503 Y161.009 E3.51576
G1 X120.402 Y161.752 E.02351
G1 X120.092 Y162.499 E.02536
G1 X119.593 Y163.175 E.02635
G1 X118.932 Y163.756 E.0276
G1 X118.138 Y164.225 E.02892
G1 X117.242 Y164.57 E.0301
G1 X116.246 Y164.785 E.03194
G1 X114.925 Y164.853 E.04149
G1 X113.936 Y164.785 E.03108
G1 X112.971 Y164.578 E.03094
G1 X112.076 Y164.238 E.03002
G1 X111.282 Y163.776 E.0288
G1 X110.62 Y163.204 E.02745
G1 X110.116 Y162.538 E.02618
G1 X109.797 Y161.8 E.02522
G1 X109.685 Y161.034 E.02425
G1 X109.683 Y48.878 E3.51657
G1 X109.784 Y48.135 E.02351
G1 X110.094 Y47.388 E.02536
G1 X110.593 Y46.712 E.02635
G1 X111.254 Y46.131 E.0276
G1 X112.048 Y45.662 E.02892
G1 X112.944 Y45.317 E.0301
G1 X113.939 Y45.101 E.03194
G1 X115.261 Y45.034 E.04149
G1 X116.25 Y45.102 E.03108
G1 X117.214 Y45.309 E.03094
G1 X118.11 Y45.648 E.03002
G1 X118.903 Y46.111 E.0288
G1 X119.566 Y46.683 E.02745
G1 X120.07 Y47.349 E.02618
G1 X120.359 Y48.019 E.02288
M204 S1000
G1 X120.771 Y48.172 F10800
;WIPE_START
G1 F8640
G1 X120.503 Y48.878 E-.20119
G1 X120.503 Y51.298 E-.55881
;WIPE_END
G1 E-.04 F2100
G1 Z.6 F720
G1 X209.81 Y17.188 F10800
M73 P1 R176
G1 Z.2 F720
G1 E.8 F2100
M204 S800
;TYPE:Solid infill
;WIDTH:0.420238
G1 F1200
G1 X213.484 Y20.862 E.16302
G1 X213.754 Y21.665 E.0266
G1 X209.191 Y17.102 E.2025
G1 X208.641 Y16.861 E.01881
G1 X208.322 Y16.767 E.01044
G1 X213.866 Y22.31 E.24596
G1 X213.93 Y22.908 E.01888
G1 X207.564 Y16.543 E.28245
G1 X207.175 Y16.427 E.01273
G1 X206.862 Y16.374 E.00998
G1 X213.93 Y23.442 E.31362
G1 X213.93 Y23.976 E.01674
G1 X206.218 Y16.263 E.3422
G1 X205.58 Y16.159 E.02028
G1 X213.93 Y24.509 E.3705
G1 X213.93 Y25.043 E.01674
G1 X205.014 Y16.127 E.39559
G1 X204.449 Y16.095 E.01777
G1 X213.93 Y25.576 E.42068
G1 X213.93 Y26.11 E.01674
G1 X203.894 Y16.074 E.44528
G1 X203.361 Y16.074 E.01674
G1 X213.93 Y26.644 E.46896
G1 X213.93 Y27.177 E.01674
G1 X202.827 Y16.074 E.49263
G1 X202.294 Y16.074 E.01674
G1 X213.93 Y27.711 E.51631
G1 X213.93 Y28.244 E.01674
G1 X201.76 Y16.074 E.53999
G1 X201.226 Y16.074 E.01674
G1 X213.93 Y28.778 E.56366
G1 X213.93 Y29.312 E.01674
G1 X200.693 Y16.074 E.58734
G1 X200.159 Y16.074 E.01674
G1 X213.93 Y29.845 E.61102
G1 X213.93 Y30.379 E.01674
G1 X199.625 Y16.074 E.63469
G1 X199.092 Y16.074 E.01674
G1 X213.93 Y30.913 E.65837
G1 X213.93 Y31.446 E.01674
G1 X198.558 Y16.074 E.68205
G1 X198.025 Y16.074 E.01674
G1 X213.93 Y31.98 E.70572
G1 X213.93 Y32.513 E.01674
G1 X197.491 Y16.074 E.7294
G1 X196.957 Y16.074 E.01674
G1 X213.93 Y33.047 E.75308
G1 X213.93 Y33.581 E.01674
G1 X196.424 Y16.074 E.77675
G1 X195.89 Y16.074 E.01674
M73 Q1 S176
G1 X213.93 Y34.114 E.80043
G1 X213.93 Y34.648 E.01674
G1 X195.356 Y16.074 E.82411
G1 X194.823 Y16.074 E.01674
G1 X213.93 Y35.181 E.84778
G1 X213.93 Y35.715 E.01674
G1 X194.289 Y16.074 E.87146
G1 X193.756 Y16.074 E.01674
G1 X213.93 Y36.249 E.89514
G1 X213.93 Y36.782 E.01674
G1 X193.222 Y16.074 E.91881
G1 X192.688 Y16.074 E.01674
G1 X213.93 Y37.316 E.94249
G1 X213.93 Y37.849 E.01674
G1 X192.155 Y16.074 E.96617
G1 X191.621 Y16.074 E.01674
G1 X213.93 Y38.383 E.98984
G1 X213.93 Y38.917 E.01674
G1 X191.087 Y16.074 E1.01352
G1 X190.554 Y16.074 E.01674
G1 X213.93 Y39.45 E1.0372
G1 X213.93 Y39.984 E.01674
G1 X190.02 Y16.074 E1.06087
G1 X189.487 Y16.074 E.01674
G1 X213.93 Y40.517 E1.08455
G1 X213.93 Y41.051 E.01674
G1 X188.953 Y16.074 E1.10823
G1 X188.419 Y16.074 E.01674
G1 X213.93 Y41.585 E1.1319
G1 X213.93 Y42.118 E.01674
G1 X187.886 Y16.074 E1.15558
G1 X187.352 Y16.074 E.01674
G1 X213.93 Y42.652 E1.17926
G1 X213.93 Y43.186 E.01674
G1 X186.819 Y16.074 E1.20293
G1 X186.285 Y16.074 E.01674
G1 X213.93 Y43.719 E1.22661
G1 X213.93 Y44.253 E.01674
G1 X185.751 Y16.074 E1.25029
G1 X185.218 Y16.074 E.01674
M73 P2 R176
M73 Q2 S176
G1 X213.93 Y44.786 E1.27396
G1 X213.93 Y45.32 E.01674
G1 X184.684 Y16.074 E1.29764
G1 X184.15 Y16.074 E.01674
G1 X213.93 Y45.854 E1.32132
G1 X213.93 Y46.387 E.01674
M73 P2 R175
G1 X183.617 Y16.074 E1.34499
G1 X183.083 Y16.074 E.01674
G1 X213.93 Y46.921 E1.36867
G1 X213.93 Y47.454 E.01674
G1 X182.55 Y16.074 E1.39235
G1 X182.016 Y16.074 E.01674
G1 X213.93 Y47.988 E1.41603
G1 X213.93 Y48.522 E.01674
G1 X181.482 Y16.074 E1.4397
G1 X180.949 Y16.074 E.01674
G1 X213.93 Y49.055 E1.46338
G1 X213.93 Y49.589 E.01674
G1 X180.415 Y16.074 E1.48706
G1 X179.881 Y16.074 E.01674
G1 X213.93 Y50.122 E1.51073
G1 X213.93 Y50.656 E.01674
G1 X179.348 Y16.074 E1.53441
G1 X178.814 Y16.074 E.01674
M73 Q2 S175
G1 X213.93 Y51.19 E1.55809
G1 X213.93 Y51.723 E.01674
G1 X178.281 Y16.074 E1.58176
G1 X177.747 Y16.074 E.01674
G1 X213.93 Y52.257 E1.60544
G1 X213.93 Y52.79 E.01674
G1 X177.213 Y16.074 E1.62912
G1 X176.68 Y16.074 E.01674
G1 X213.93 Y53.324 E1.65279
G1 X213.93 Y53.858 E.01674
G1 X176.146 Y16.074 E1.67647
G1 X175.612 Y16.074 E.01674
G1 X213.93 Y54.391 E1.70015
G1 X213.93 Y54.925 E.01674
G1 X175.079 Y16.074 E1.72382
G1 X174.545 Y16.074 E.01674
G1 X213.93 Y55.459 E1.7475
G1 X213.93 Y55.992 E.01674
G1 X174.012 Y16.074 E1.77118
G1 X173.478 Y16.074 E.01674
G1 X213.93 Y56.526 E1.79485
G1 X213.93 Y57.059 E.01674
G1 X172.944 Y16.073 E1.81853
G1 X172.411 Y16.073 E.01674
G1 X213.93 Y57.593 E1.84221
G1 X213.93 Y58.127 E.01674
G1 X171.877 Y16.073 E1.86588
G1 X171.343 Y16.073 E.01674
M73 P2 R174
G1 X213.93 Y58.66 E1.88956
G1 X213.93 Y59.194 E.01674
G1 X170.81 Y16.073 E1.91324
G1 X170.276 Y16.073 E.01674
G1 X213.93 Y59.727 E1.93691
G1 X213.93 Y60.261 E.01674
G1 X169.743 Y16.073 E1.96059
G1 X169.209 Y16.073 E.01674
G1 X213.93 Y60.795 E1.98427
G1 X213.93 Y61.328 E.01674
G1 X168.675 Y16.073 E2.00794
G1 X168.142 Y16.073 E.01674
G1 X213.93 Y61.862 E2.03162
G1 X213.93 Y62.395 E.01674
M73 Q2 S174
G1 X167.608 Y16.073 E2.0553
G1 X167.074 Y16.073 E.01674
G1 X213.93 Y62.929 E2.07897
G1 X213.93 Y63.463 E.01674
G1 X166.541 Y16.073 E2.10265
G1 X166.007 Y16.073 E.01674
G1 X213.93 Y63.996 E2.12633
G1 X213.93 Y64.53 E.01674
G1 X165.474 Y16.073 E2.15
G1 X164.94 Y16.073 E.01674
G1 X213.93 Y65.063 E2.17368
G1 X213.93 Y65.597 E.01674
M73 P3 R174
M73 Q3 S174
G1 X164.406 Y16.073 E2.19736
G1 X163.873 Y16.073 E.01674
G1 X213.93 Y66.131 E2.22103
G1 X213.93 Y66.664 E.01674
G1 X163.339 Y16.073 E2.24471
G1 X162.805 Y16.073 E.01674
G1 X213.93 Y67.198 E2.26839
G1 X213.93 Y67.731 E.01674
G1 X162.272 Y16.073 E2.29206
G1 X161.738 Y16.073 E.01674
M73 P3 R173
G1 X213.93 Y68.265 E2.31574
G1 X213.93 Y68.799 E.01674
G1 X161.205 Y16.073 E2.33942
G1 X160.671 Y16.073 E.01674
G1 X213.93 Y69.332 E2.36309
G1 X213.93 Y69.866 E.01674
G1 X160.137 Y16.073 E2.38677
G1 X159.604 Y16.073 E.01674
G1 X213.93 Y70.4 E2.41045
G1 X213.93 Y70.933 E.01674
G1 X159.07 Y16.073 E2.43412
G1 X158.536 Y16.073 E.01674
