; generated by PrusaSlicer 2.5.0+MacOS-arm64 on 2022-12-13 at 10:17:26 UTC


;
;
; 

; external perimeters extrusion width = 0.60mm
; perimeters extrusion width = 0.50mm
; infill extrusion width = 0.50mm
; solid infill extrusion width = 0.50mm
; top infill extrusion width = 0.45mm
; first layer extrusion width = 0.42mm

M73 P0 R154
M73 Q0 S155
M201 X1000 Y1000 Z200 E5000 ; sets maximum accelerations, mm/sec^2
M203 X200 Y200 Z12 E120 ; sets maximum feedrates, mm / sec
M204 P1250 R1250 T1250 ; sets acceleration (P, T) and retract acceleration (R), mm/sec^2
M205 X8.00 Y8.00 Z0.40 E4.50 ; sets the jerk limits, mm/sec
M205 S0 T0 ; sets the minimum extruding and travel feed rate, mm/sec
M107
;TYPE:Custom
M862.3 P "MK3S" ; printer model check
M862.1 P0.4 ; nozzle diameter check
M115 U3.11.0 ; tell printer latest fw version
G90 ; use absolute coordinates
M83 ; extruder relative mode
M104 S215 ; set extruder temp
M140 S60 ; set bed temp
M190 S60 ; wait for bed temp
M109 S215 ; wait for extruder temp
G28 W ; home all without mesh bed level
G80 ; mesh bed leveling

G1 Z0.2 F720
G1 Y-3 F1000 ; go outside print area
G92 E0
G1 X60 E9 F1000 ; intro line
G1 X100 E12.5 F1000 ; intro line

G92 E0
M221 S95

; Don't change E values below. Excessive value can damage the printer.

M907 E538 ; set extruder motor current
G21 ; set units to millimeters
G90 ; use absolute coordinates
M83 ; use relative distances for extrusion
M900 K0.05 ; Filament gcode LA 1.5
M900 K30 ; Filament gcode LA 1.0
M107
;LAYER_CHANGE
;Z:0.2
;HEIGHT:0.2
;BEFORE_LAYER_CHANGE
G92 E0.0
;0.2


G1 E-.8 F2100
G1 Z.4 F720
;AFTER_LAYER_CHANGE
;0.2
G1 X33.481 Y19.223 F10800
G1 Z.2 F720
G1 E.8 F2100
M204 S800
;TYPE:Skirt/Brim
;WIDTH:0.42
G1 F1200
G1 X34.392 Y17.732 E.0548
G1 X35.291 Y16.683 E.04332
G1 X36.689 Y15.472 E.05797
G1 X38.57 Y14.319 E.06918
G1 X40.317 Y13.575 E.05953
G1 X41.907 Y13.104 E.05201
G1 X44.256 Y12.719 E.07462
G1 X206.146 Y12.754 E5.07594
G1 X208.093 Y13.104 E.06202
G1 X209.962 Y13.677 E.0613
G1 X211.715 Y14.468 E.06029
G1 X213.311 Y15.472 E.05914
G1 X214.709 Y16.683 E.05797
G1 X215.86 Y18.087 E.05694
G1 X216.716 Y19.658 E.0561
G1 X217.118 Y20.854 E.03956
G1 X217.242 Y21.607 E.02391
G1 X217.37 Y85.817 E2.01326
G1 X217.242 Y188.392 E3.21618
G1 X217.118 Y189.146 E.02396
M73 Q0 S154
G1 X216.519 Y190.777 E.05448
G1 X215.608 Y192.268 E.0548
G1 X214.709 Y193.317 E.04332
G1 X213.311 Y194.528 E.05797
G1 X211.43 Y195.681 E.06918
G1 X209.683 Y196.425 E.05954
G1 X208.093 Y196.896 E.05202
G1 X205.744 Y197.281 E.07462
G1 X44.256 Y197.281 E5.06334
G1 X42.18 Y196.959 E.06587
M73 P0 R153
G1 X40.038 Y196.323 E.07006
G1 X38.57 Y195.681 E.05025
G1 X36.976 Y194.734 E.05814
G1 X35.571 Y193.593 E.05675
G1 X34.392 Y192.268 E.05559
G1 X33.481 Y190.777 E.0548
G1 X32.882 Y189.146 E.05448
G1 X32.758 Y188.392 E.02396
G1 X32.63 Y85.817 E3.21617
G1 X32.758 Y21.607 E2.01326
G1 X32.882 Y20.854 E.02391
G1 X33.46 Y19.279 E.0526
M204 S1000
; printing object mockup_V2.stl id:0 copy 0
;WIPE_START
G1 F8640
G1 X34.392 Y17.732 E-.41715
G1 X35.291 Y16.683 E-.31903
G1 X35.369 Y16.615 E-.02382
;WIPE_END
G1 E-.04 F2100
G1 Z.6 F720
G1 X214.078 Y188.26 F10800
G1 Z.2 F720
G1 E.8 F2100
M204 S800
;TYPE:Perimeter
;WIDTH:0.419999
G1 F1200
G1 X213.742 Y189.258 E.03303
G1 X213.16 Y190.263 E.03642
G1 X212.35 Y191.207 E.039
G1 X211.326 Y192.063 E.04183
G1 X210.113 Y192.804 E.04458
G1 X208.738 Y193.405 E.04703
G1 X207.239 Y193.848 E.04901
G1 X205.677 Y194.116 E.0497
G1 X44.323 Y194.116 E5.05913
G1 X42.761 Y193.848 E.0497
G1 X41.262 Y193.405 E.04901
G1 X39.887 Y192.804 E.04703
G1 X38.674 Y192.063 E.04458
G1 X37.651 Y191.207 E.04182
G1 X36.841 Y190.263 E.03901
G1 X36.258 Y189.258 E.03642
G1 X35.922 Y188.26 E.03303
G1 X35.922 Y21.74 E5.22109
G1 X36.258 Y20.742 E.03303
G1 X36.841 Y19.737 E.03642
G1 X37.651 Y18.793 E.03901
G1 X38.674 Y17.937 E.04183
G1 X39.887 Y17.196 E.04458
G1 X41.262 Y16.595 E.04703
G1 X42.761 Y16.152 E.04901
G1 X44.323 Y15.884 E.0497
G1 X205.744 Y15.895 E5.06123
G1 X207.239 Y16.152 E.04757
G1 X208.738 Y16.595 E.04902
G1 X210.113 Y17.197 E.04703
G1 X211.326 Y17.937 E.04458
G1 X212.35 Y18.793 E.04183
G1 X213.16 Y19.737 E.039
G1 X213.742 Y20.742 E.03642
G1 X214.078 Y21.74 E.03304
G1 X214.078 Y188.2 E5.21921
M204 S1000
G1 X214.455 Y188.321 F10800
M204 S800
;TYPE:External perimeter
G1 F1200
G1 X214.088 Y189.415 E.03616
G1 X213.468 Y190.482 E.0387
G1 X212.615 Y191.477 E.04107
G1 X211.547 Y192.37 E.04369
G1 X210.287 Y193.139 E.04626
G1 X208.868 Y193.76 E.04857
G1 X207.325 Y194.216 E.05045
G1 X205.709 Y194.493 E.05141
G1 X44.291 Y194.493 E5.06115
G1 X42.675 Y194.216 E.05141
M73 P0 R152
M73 Q0 S153
G1 X41.132 Y193.76 E.05045
G1 X39.713 Y193.139 E.04857
G1 X38.453 Y192.37 E.04626
G1 X37.385 Y191.477 E.04368
G1 X36.532 Y190.482 E.04107
G1 X35.912 Y189.415 E.0387
G1 X35.545 Y188.321 E.03616
G1 X35.545 Y21.679 E5.22495
G1 X35.912 Y20.585 E.03616
M73 P1 R152
M73 Q1 S153
G1 X36.532 Y19.518 E.0387
G1 X37.385 Y18.523 E.04107
G1 X38.453 Y17.63 E.04369
G1 X39.713 Y16.861 E.04626
G1 X41.132 Y16.24 E.04857
G1 X42.675 Y15.784 E.05045
G1 X44.291 Y15.507 E.05141
G1 X205.776 Y15.518 E5.06324
G1 X207.325 Y15.784 E.04928
G1 X208.868 Y16.24 E.05045
G1 X210.287 Y16.861 E.04857
G1 X211.547 Y17.63 E.04626
G1 X212.615 Y18.523 E.04369
G1 X213.468 Y19.518 E.04107
G1 X214.088 Y20.585 E.0387
G1 X214.455 Y21.679 E.03616
G1 X214.455 Y188.261 E5.22307
M204 S1000
G1 X214.074 Y188.443 F10800
;WIPE_START
G1 F8640
G1 X214.088 Y189.415 E-.27946
G1 X213.468 Y190.482 E-.28501
G1 X212.917 Y191.125 E-.19552
;WIPE_END
G1 E-.04 F2100
G1 Z.6 F720
G1 X54.262 Y162.258 F10800
G1 Z.2 F720
G1 E.8 F2100
M204 S800
;TYPE:Perimeter
G1 F1200
G1 X54.12 Y161.461 E.02538
G1 X54.12 Y48.878 E3.52994
G1 X54.224 Y48.084 E.02512
G1 X54.561 Y47.241 E.02846
G1 X55.105 Y46.486 E.02917
G1 X55.821 Y45.847 E.03009
G1 X56.672 Y45.336 E.0311
G1 X57.624 Y44.965 E.03205
G1 X58.734 Y44.725 E.03563
G1 X60.056 Y44.657 E.04149
G1 X61.091 Y44.726 E.03251
G1 X62.109 Y44.94 E.03262
G1 X63.058 Y45.296 E.0318
G1 X63.908 Y45.785 E.03074
G1 X64.628 Y46.398 E.02964
G1 X65.186 Y47.123 E.02868
G1 X65.55 Y47.94 E.02804
G1 X65.694 Y48.878 E.02977
G1 X65.694 Y161.009 E3.51576
G1 X65.59 Y161.803 E.02512
G1 X65.254 Y162.646 E.02846
G1 X64.709 Y163.4 E.02917
G1 X63.994 Y164.04 E.0301
G1 X63.143 Y164.55 E.0311
G1 X62.191 Y164.922 E.03205
G1 X61.171 Y165.15 E.03277
G1 X60.055 Y165.23 E.03508
G1 X58.744 Y165.171 E.04114
G1 X57.728 Y164.986 E.03237
G1 X56.79 Y164.679 E.03096
G1 X55.947 Y164.257 E.02956
G1 X55.227 Y163.723 E.02809
G1 X54.66 Y163.083 E.02683
G1 X54.273 Y162.317 E.02691
M204 S1000
G1 X54.624 Y162.193 F10800
M204 S800
;TYPE:External perimeter
G1 F1200
G1 X54.497 Y161.461 E.02331
G1 X54.497 Y48.878 E3.52994
G1 X54.598 Y48.135 E.02351
G1 X54.908 Y47.388 E.02536
G1 X55.407 Y46.712 E.02635
G1 X56.068 Y46.131 E.0276
G1 X56.862 Y45.662 E.02892
G1 X57.758 Y45.317 E.0301
G1 X58.754 Y45.102 E.03194
G1 X60.075 Y45.034 E.04149
G1 X61.064 Y45.102 E.03108
G1 X62.029 Y45.309 E.03094
G1 X62.924 Y45.648 E.03002
G1 X63.718 Y46.11 E.02879
G1 X64.38 Y46.683 E.02745
G1 X64.884 Y47.349 E.02619
G1 X65.203 Y48.087 E.02522
G1 X65.317 Y48.878 E.02506
G1 X65.317 Y161.009 E3.51576
G1 X65.217 Y161.751 E.02351
G1 X64.906 Y162.499 E.02536
G1 X64.407 Y163.174 E.02635
G1 X63.746 Y163.756 E.0276
G1 X62.952 Y164.225 E.02892
G1 X62.056 Y164.57 E.0301
G1 X61.091 Y164.781 E.03098
G1 X60.072 Y164.853 E.03204
G1 X58.761 Y164.795 E.04114
G1 X57.798 Y164.615 E.0307
G1 X56.909 Y164.322 E.02937
G1 X56.118 Y163.921 E.02778
G1 X55.455 Y163.423 E.02601
G1 X54.945 Y162.837 E.02434
G1 X54.651 Y162.247 E.02068
M204 S1000
G1 X54.233 Y162.109 F10800
;WIPE_START
G1 F8640
G1 X54.497 Y161.461 E-.18498
G1 X54.497 Y158.97 E-.57502
;WIPE_END
M73 Q1 S152
G1 E-.04 F2100
G1 Z.6 F720
G1 X69.255 Y48.008 F10800
G1 Z.2 F720
G1 E.8 F2100
M204 S800
;TYPE:Perimeter
G1 F1200
G1 X69.561 Y47.241 E.02589
G1 X70.105 Y46.486 E.02917
G1 X70.821 Y45.847 E.03009
G1 X71.671 Y45.337 E.0311
G1 X72.624 Y44.965 E.03205
G1 X73.644 Y44.737 E.03277
G1 X75.056 Y44.657 E.04435
G1 X76.091 Y44.726 E.03251
G1 X77.109 Y44.94 E.03262
G1 X78.058 Y45.296 E.0318
G1 X78.908 Y45.785 E.03075
G1 X79.628 Y46.398 E.02963
G1 X80.186 Y47.123 E.02868
G1 X80.55 Y47.94 E.02804
G1 X80.694 Y48.878 E.02977
G1 X80.694 Y161.009 E3.51576
G1 X80.59 Y161.803 E.02512
M73 P1 R151
G1 X80.254 Y162.646 E.02846
G1 X79.709 Y163.4 E.02917
G1 X78.994 Y164.04 E.03009
G1 X78.143 Y164.55 E.0311
G1 X77.191 Y164.922 E.03206
G1 X76.08 Y165.162 E.03563
G1 X74.758 Y165.23 E.04149
G1 X73.724 Y165.161 E.03251
G1 X72.706 Y164.946 E.03262
G1 X71.756 Y164.591 E.0318
G1 X70.906 Y164.101 E.03075
G1 X70.187 Y163.488 E.02964
G1 X69.629 Y162.764 E.02867
G1 X69.264 Y161.947 E.02805
G1 X69.12 Y161.009 E.02977
G1 X69.12 Y48.878 E3.51576
G1 X69.232 Y48.064 E.02578
M204 S1000
G1 X69.596 Y48.149 F10800
M204 S800
;TYPE:External perimeter
G1 F1200
G1 X69.908 Y47.388 E.02579
G1 X70.407 Y46.712 E.02635
G1 X71.068 Y46.131 E.0276
G1 X71.862 Y45.662 E.02892
G1 X72.758 Y45.317 E.03011
G1 X73.724 Y45.106 E.03098
G1 X75.075 Y45.034 E.04244
G1 X76.064 Y45.102 E.03108
G1 X77.029 Y45.309 E.03094
G1 X77.924 Y45.648 E.03002
G1 X78.718 Y46.111 E.0288
G1 X79.38 Y46.683 E.02744
G1 X79.884 Y47.349 E.02619
G1 X80.203 Y48.087 E.02522
G1 X80.317 Y48.878 E.02506
G1 X80.317 Y161.009 E3.51576
G1 X80.217 Y161.751 E.0235
G1 X79.906 Y162.499 E.02536
G1 X79.407 Y163.174 E.02635
G1 X78.746 Y163.756 E.0276
G1 X77.952 Y164.225 E.02891
G1 X77.056 Y164.57 E.03011
G1 X76.06 Y164.785 E.03194
G1 X74.739 Y164.853 E.04149
G1 X73.75 Y164.785 E.03108
G1 X72.786 Y164.578 E.03094
G1 X71.89 Y164.238 E.03002
G1 X71.097 Y163.776 E.0288
G1 X70.434 Y163.204 E.02745
G1 X69.931 Y162.538 E.02618
G1 X69.611 Y161.8 E.02522
G1 X69.497 Y161.009 E.02506
G1 X69.497 Y48.878 E3.51576
G1 X69.588 Y48.209 E.02118
M204 S1000
G1 X69.312 Y47.867 F10800
;WIPE_START
G1 F8640
G1 X69.908 Y47.388 E-.20334
G1 X70.407 Y46.712 E-.19405
G1 X71.068 Y46.131 E-.20324
G1 X71.662 Y45.78 E-.15937
;WIPE_END
G1 E-.04 F2100
G1 Z.6 F720
G1 X84.251 Y161.867 F10800
G1 Z.2 F720
G1 E.8 F2100
M204 S800
;TYPE:Perimeter
G1 F1200
G1 X84.12 Y161.009 E.02723
G1 X84.12 Y48.878 E3.51576
G1 X84.224 Y48.084 E.02512
G1 X84.561 Y47.241 E.02845
G1 X85.105 Y46.486 E.02917
G1 X85.82 Y45.847 E.03008
G1 X86.672 Y45.336 E.03111
G1 X87.624 Y44.965 E.03205
G1 X88.734 Y44.725 E.03563
G1 X90.056 Y44.657 E.04149
G1 X91.091 Y44.726 E.03251
G1 X92.109 Y44.94 E.03262
G1 X93.058 Y45.296 E.0318
G1 X93.908 Y45.785 E.03074
G1 X94.628 Y46.398 E.02964
G1 X95.186 Y47.123 E.02868
G1 X95.55 Y47.94 E.02805
G1 X95.694 Y48.878 E.02977
G1 X95.694 Y161.009 E3.51576
G1 X95.59 Y161.803 E.02513
G1 X95.254 Y162.646 E.02845
G1 X94.709 Y163.4 E.02917
G1 X93.994 Y164.04 E.0301
G1 X93.143 Y164.55 E.03111
G1 X92.191 Y164.922 E.03204
G1 X91.08 Y165.162 E.03563
G1 X89.758 Y165.23 E.04149
G1 X88.724 Y165.161 E.03251
G1 X87.706 Y164.946 E.03262
G1 X86.756 Y164.591 E.0318
G1 X85.906 Y164.101 E.03074
G1 X85.187 Y163.488 E.02964
G1 X84.629 Y162.764 E.02867
G1 X84.261 Y161.926 E.02868
M204 S1000
G1 X84.617 Y161.813 F10800
M204 S800
;TYPE:External perimeter
G1 F1200
G1 X84.497 Y161.009 E.0255
G1 X84.497 Y48.878 E3.51576
G1 X84.598 Y48.135 E.02351
M73 P2 R151
M73 Q2 S152
G1 X84.908 Y47.388 E.02535
G1 X85.407 Y46.712 E.02635
G1 X86.068 Y46.131 E.02759
G1 X86.862 Y45.662 E.02893
G1 X87.758 Y45.317 E.0301
G1 X88.754 Y45.102 E.03194
G1 X90.075 Y45.034 E.04149
G1 X91.064 Y45.102 E.03108
G1 X92.029 Y45.309 E.03094
G1 X92.924 Y45.648 E.03002
G1 X93.718 Y46.11 E.02879
G1 X94.38 Y46.683 E.02745
G1 X94.884 Y47.349 E.02619
G1 X95.203 Y48.087 E.02522
G1 X95.317 Y48.878 E.02506
G1 X95.317 Y161.009 E3.51576
G1 X95.216 Y161.752 E.02351
G1 X94.906 Y162.498 E.02536
G1 X94.407 Y163.174 E.02635
G1 X93.746 Y163.756 E.0276
G1 X92.952 Y164.225 E.02892
G1 X92.056 Y164.57 E.0301
G1 X91.061 Y164.785 E.03194
G1 X89.739 Y164.853 E.04149
G1 X88.75 Y164.785 E.03108
G1 X87.786 Y164.578 E.03094
G1 X86.89 Y164.238 E.03002
G1 X86.097 Y163.776 E.02879
G1 X85.434 Y163.204 E.02745
G1 X84.931 Y162.538 E.02618
G1 X84.641 Y161.868 E.02289
M204 S1000
G1 X84.229 Y161.715 F10800
;WIPE_START
G1 F8640
G1 X84.497 Y161.009 E-.20119
G1 X84.497 Y158.588 E-.55881
;WIPE_END
G1 E-.04 F2100
G1 Z.6 F720
G1 X99.251 Y161.867 F10800
G1 Z.2 F720
G1 E.8 F2100
M204 S800
;TYPE:Perimeter
G1 F1200
G1 X99.12 Y161.009 E.02723
G1 X99.12 Y48.878 E3.51576
G1 X99.224 Y48.084 E.02513
M73 Q2 S151
G1 X99.561 Y47.241 E.02845
G1 X100.105 Y46.486 E.02917
G1 X100.821 Y45.847 E.03009
G1 X101.671 Y45.337 E.03111
G1 X102.624 Y44.965 E.03205
G1 X103.734 Y44.725 E.03563
G1 X105.056 Y44.657 E.04149
G1 X106.091 Y44.726 E.03251
G1 X107.109 Y44.94 E.03262
G1 X108.058 Y45.296 E.0318
G1 X108.908 Y45.785 E.03075
G1 X109.628 Y46.398 E.02963
G1 X110.186 Y47.123 E.02868
G1 X110.55 Y47.94 E.02804
G1 X110.694 Y48.878 E.02977
G1 X110.694 Y161.009 E3.51576
G1 X110.59 Y161.803 E.02513
G1 X110.254 Y162.646 E.02846
G1 X109.709 Y163.4 E.02917
G1 X108.994 Y164.04 E.0301
G1 X108.143 Y164.55 E.0311
G1 X107.191 Y164.922 E.03205
G1 X106.08 Y165.162 E.03563
G1 X104.758 Y165.23 E.04149
G1 X103.724 Y165.161 E.03251
G1 X102.706 Y164.946 E.03262
G1 X101.756 Y164.591 E.0318
M73 P2 R150
G1 X100.906 Y164.101 E.03075
G1 X100.187 Y163.488 E.02964
G1 X99.629 Y162.764 E.02867
G1 X99.261 Y161.926 E.02868
M204 S1000
G1 X99.617 Y161.813 F10800
M204 S800
;TYPE:External perimeter
G1 F1200
G1 X99.497 Y161.009 E.0255
G1 X99.497 Y48.878 E3.51576
G1 X99.598 Y48.135 E.02351
G1 X99.908 Y47.388 E.02536
G1 X100.407 Y46.712 E.02635
G1 X101.068 Y46.131 E.0276
G1 X101.862 Y45.662 E.02892
G1 X102.758 Y45.317 E.03011
G1 X103.754 Y45.102 E.03194
G1 X105.075 Y45.034 E.04149
G1 X106.064 Y45.102 E.03108
G1 X107.029 Y45.309 E.03094
G1 X107.924 Y45.648 E.03002
G1 X108.718 Y46.111 E.0288
G1 X109.38 Y46.683 E.02744
G1 X109.884 Y47.349 E.02619
G1 X110.203 Y48.087 E.02522
G1 X110.317 Y48.878 E.02506
G1 X110.317 Y161.009 E3.51576
G1 X110.216 Y161.752 E.02351
G1 X109.906 Y162.499 E.02536
G1 X109.407 Y163.174 E.02634
G1 X108.746 Y163.756 E.02761
G1 X107.952 Y164.225 E.02892
G1 X107.056 Y164.57 E.0301
G1 X106.06 Y164.785 E.03194
G1 X104.739 Y164.853 E.04149
G1 X103.75 Y164.785 E.03108
G1 X102.786 Y164.578 E.03094
G1 X101.891 Y164.238 E.03001
G1 X101.097 Y163.776 E.0288
G1 X100.434 Y163.204 E.02745
G1 X99.931 Y162.538 E.02618
G1 X99.641 Y161.868 E.02289
M204 S1000
G1 X99.229 Y161.715 F10800
;WIPE_START
G1 F8640
G1 X99.497 Y161.009 E-.20118
G1 X99.497 Y158.588 E-.55882
;WIPE_END
G1 E-.04 F2100
G1 Z.6 F720
G1 X125.56 Y161.879 F10800
G1 Z.2 F720
G1 E.8 F2100
M204 S800
;TYPE:Perimeter
G1 F1200
G1 X125.253 Y162.646 E.0259
G1 X124.709 Y163.4 E.02917
G1 X123.994 Y164.04 E.03009
G1 X123.143 Y164.55 E.0311
G1 X122.191 Y164.922 E.03205
G1 X121.171 Y165.15 E.03277
G1 X119.758 Y165.23 E.04435
G1 X118.724 Y165.161 E.03251
G1 X117.706 Y164.946 E.03262
G1 X116.756 Y164.591 E.0318
G1 X115.906 Y164.101 E.03075
G1 X115.187 Y163.488 E.02964
G1 X114.629 Y162.764 E.02867
G1 X114.264 Y161.947 E.02805
G1 X114.12 Y161.009 E.02977
G1 X114.12 Y48.878 E3.51576
G1 X114.224 Y48.084 E.02513
G1 X114.561 Y47.241 E.02845
G1 X115.105 Y46.486 E.02917
G1 X115.821 Y45.847 E.03009
G1 X116.672 Y45.336 E.03111
G1 X117.624 Y44.965 E.03205
G1 X118.734 Y44.725 E.03563
G1 X120.056 Y44.657 E.04149
G1 X121.091 Y44.726 E.03251
G1 X122.109 Y44.94 E.03262
G1 X123.058 Y45.296 E.0318
G1 X123.908 Y45.785 E.03075
G1 X124.628 Y46.398 E.02963
G1 X125.186 Y47.123 E.02868
G1 X125.55 Y47.94 E.02804
G1 X125.694 Y48.878 E.02977
G1 X125.694 Y161.009 E3.51576
G1 X125.582 Y161.823 E.02578
M204 S1000
G1 X125.218 Y161.737 F10800
M204 S800
;TYPE:External perimeter
G1 F1200
G1 X124.906 Y162.499 E.02579
G1 X124.407 Y163.175 E.02635
G1 X123.746 Y163.756 E.0276
G1 X122.952 Y164.225 E.02892
G1 X122.056 Y164.57 E.0301
G1 X121.091 Y164.781 E.03098
G1 X119.739 Y164.853 E.04244
G1 X118.75 Y164.785 E.03108
G1 X117.786 Y164.578 E.03094
G1 X116.89 Y164.238 E.03002
G1 X116.097 Y163.776 E.0288
G1 X115.434 Y163.204 E.02745
G1 X114.931 Y162.538 E.02618
G1 X114.611 Y161.8 E.02523
G1 X114.497 Y161.009 E.02506
G1 X114.497 Y48.878 E3.51576
G1 X114.598 Y48.135 E.02351
